packages/swarm-icons/src/icons/line/TV.svg

<svg xmlns="http://www.w3.org/2000/svg" width="24" height="24" viewBox="0 0 24 24">
  <path fill="#757575" d="M2,4 L2,18 L22,18 L22,4 L2,4 Z M2,3 L22,3 C22.5522847,3 23,3.44771525 23,4 L23,18 C23,18.5522847 22.5522847,19 22,19 L2,19 C1.44771525,19 1,18.5522847 1,18 L1,4 C1,3.44771525 1.44771525,3 2,3 Z M9.5,8.30901699 L9.5,13.690983 L14.881966,11 L9.5,8.30901699 Z M16.2236068,11.4472136 L9.2236068,14.9472136 C8.89115625,15.1134389 8.5,14.871691 8.5,14.5 L8.5,7.5 C8.5,7.12830899 8.89115625,6.88656113 9.2236068,7.0527864 L16.2236068,10.5527864 C16.5921311,10.7370485 16.5921311,11.2629515 16.2236068,11.4472136 Z M6.5,20 L17.5,20 C17.7761424,20 18,20.2238576 18,20.5 C18,20.7761424 17.7761424,21 17.5,21 L6.5,21 C6.22385763,21 6,20.7761424 6,20.5 C6,20.2238576 6.22385763,20 6.5,20 Z"/>
</svg>

<svg xmlns="http://www.w3.org/2000/svg" width="24" height="24"><path fill="#757575" d="M2 4v14h20V4H2zm0-1h20a1 1 0 011 1v14a1 1 0 01-1 1H2a1 1 0 01-1-1V4a1 1 0 011-1zm7.5 5.309v5.382L14.882 11 9.5 8.309zm6.724 3.138l-7 3.5A.5.5 0 018.5 14.5v-7a.5.5 0 01.724-.447l7 3.5a.5.5 0 010 .894zM6.5 20h11a.5.5 0 110 1h-11a.5.5 0 110-1z"/></svg>
